X:973
T:Reel 973
M: 4/4
L:1/8
K: G Major
d|cBcGECEG|cBcdcBAB|cAGFECEG|fdeccBAB|cBcGECEG|cBcdcBAB|cAGFECE|GfdecAdd|d|a2ageaab|agefg2ge|a2ageaab|agefg2ge|a2ag(3efgfd|eB(3BABg3f|afgefdec|dfegcBAB|.abc